ncols 24
nrows 18
xllcorner 500000.0
yllcorner 4100000.0
cellsize 5.0
NODATA_value -9999
100.3182 100.8757 101.4691 102.1113 102.8134 103.5813 104.4101 105.2816 106.1627 107.0096 107.7751 108.4194 108.9194 109.2751 109.5096 109.6627 109.7816 109.9101 110.0813 110.3134 110.6113 110.9691 111.3757 111.8182
100.3564 100.9461 101.5917 102.3134 103.1287 104.0464 105.0593 106.1387 107.2331 108.2741 109.1882 109.9132 110.4132 110.6882 110.7741 110.7331 110.6387 110.5593 110.5464 110.6287 110.8134 111.0917 111.4461 111.8564
100.4070 101.0393 101.7542 -9999.0000 103.5464 104.6627 105.9194 107.2741 108.6511 109.9492 111.0602 111.8922 112.3922 112.5602 112.4492 112.1511 111.7741 111.4194 111.1627 111.0464 111.0813 111.2542 111.5393 111.9070
100.4691 101.1537 101.9536 102.9101 104.0593 105.4194 106.9754 108.6683 110.3922 112.0061 113.3588 114.3221 114.8221 114.8588 114.5061 113.8922 113.1683 112.4754 111.9194 111.5593 111.4101 111.4536 111.6537 111.9691
100.5393 101.2830 102.1789 103.2816 104.6387 106.2741 108.1683 110.2430 112.3588 114.3295 115.9552 117.0668 117.5668 117.4552 116.8295 115.8588 114.7430 113.6683 112.7741 112.1387 111.7816 111.6789 111.7830 112.0393
100.6113 101.4156 102.4101 103.6627 105.2331 107.1511 109.3922 111.8588 114.3767 116.7133 118.6192 119.8830 120.3830 120.1192 119.2133 117.8767 116.3588 114.8922 113.6511 112.7331 112.1627 111.9101 111.9156 112.1113
100.6768 101.5363 102.6205 104.0096 105.7741 107.9492 110.5061 113.3295 116.2133 118.8830 121.0439 122.4461 122.9461 122.5439 121.3830 119.7133 117.8295 116.0061 114.4492 113.2741 112.5096 112.1205 112.0363 112.1768
100.7269 101.6287 102.7816 104.2751 106.1882 108.5602 111.3588 114.4552 117.6192 120.5439 122.8999 124.4082 124.9082 124.3999 123.0439 121.1192 118.9552 116.8588 115.0602 113.6882 112.7751 112.2816 112.1287 112.2269
100.7542 101.6789 102.8691 104.4194 106.4132 108.8922 111.8221 115.0668 118.3830 121.4461 123.9082 125.4741 125.9741 125.4082 123.9461 121.8830 119.5668 117.3221 115.3922 113.9132 112.9194 112.3691 112.1789 112.2542
100.7542 101.6789 102.8691 104.4194 106.4132 108.8922 111.8221 115.0668 118.3830 121.4461 123.9082 125.4741 125.9741 125.4082 123.9461 121.8830 119.5668 117.3221 115.3922 113.9132 112.9194 112.3691 112.1789 112.2542
100.7269 101.6287 102.7816 104.2751 106.1882 108.5602 111.3588 114.4552 117.6192 120.5439 122.8999 124.4082 124.9082 124.3999 123.0439 121.1192 118.9552 116.8588 115.0602 113.6882 112.7751 112.2816 112.1287 112.2269
100.6768 101.5363 102.6205 104.0096 105.7741 107.9492 110.5061 113.3295 116.2133 118.8830 121.0439 122.4461 122.9461 122.5439 121.3830 119.7133 117.8295 116.0061 114.4492 113.2741 112.5096 112.1205 112.0363 112.1768
100.6113 101.4156 102.4101 103.6627 105.2331 107.1511 109.3922 111.8588 114.3767 116.7133 118.6192 119.8830 120.3830 120.1192 119.2133 117.8767 116.3588 114.8922 113.6511 112.7331 112.1627 111.9101 111.9156 112.1113
100.5393 101.2830 102.1789 103.2816 104.6387 106.2741 108.1683 110.2430 112.3588 114.3295 115.9552 117.0668 117.5668 117.4552 116.8295 115.8588 114.7430 113.6683 112.7741 112.1387 111.7816 111.6789 111.7830 112.0393
100.4691 101.1537 101.9536 102.9101 104.0593 105.4194 106.9754 108.6683 110.3922 112.0061 113.3588 114.3221 114.8221 114.8588 114.5061 113.8922 113.1683 112.4754 111.9194 111.5593 111.4101 111.4536 111.6537 111.9691
100.4070 101.0393 101.7542 102.5813 103.5464 104.6627 105.9194 107.2741 108.6511 109.9492 111.0602 111.8922 112.3922 112.5602 112.4492 112.1511 111.7741 111.4194 111.1627 111.0464 111.0813 111.2542 111.5393 111.9070
100.3564 100.9461 101.5917 102.3134 103.1287 104.0464 105.0593 106.1387 107.2331 108.2741 109.1882 109.9132 110.4132 110.6882 110.7741 110.7331 110.6387 110.5593 110.5464 110.6287 110.8134 111.0917 111.4461 111.8564
100.3182 100.8757 101.4691 102.1113 102.8134 103.5813 104.4101 105.2816 106.1627 107.0096 107.7751 108.4194 108.9194 109.2751 109.5096 109.6627 109.7816 109.9101 110.0813 110.3134 110.6113 110.9691 111.3757 111.8182
